Adwaita++/actions/22/edit-table-insert-column-right.svg

<svg height="22" viewBox="0 0 22 22" width="22" xmlns="http://www.w3.org/2000/svg">
  <path d="m1 1v14h8v-2h-2v-2h2v-2h-2v-2h2v-2h-2v-2h2v-2zm9 1v7h1v-.28125l1.71875-1.71875 1-1 .28125-.28125v2.5625l-.71875.71875h1.71875v-7h-1v2.28125l-1.71875 1.71875-1 1-.28125.28125v-2.5625l1.71875-1.71875 1-1h-1.4375l-1 1-.28125.28125v-1.28125zm-7 1h2v2h-2zm0 4h2v2h-2zm8 3v4l4-2zm-8 1h2v2h-2z" fill="#444" transform="translate(3 3)"/>
</svg>

<svg xmlns="http://www.w3.org/2000/svg" width="22" height="22" viewBox="0 0 22 22">
 <defs>
  <style id="current-color-scheme" type="text/css">
   .ColorScheme-Text { color:#444444; } .ColorScheme-Highlight { color:#4285f4; }
  </style>
 </defs>
 <path style="fill:currentColor" class="ColorScheme-Text" d="M 1 1 L 1 15 L 9 15 L 9 13 L 7 13 L 7 11 L 9 11 L 9 9 L 7 9 L 7 7 L 9 7 L 9 5 L 7 5 L 7 3 L 9 3 L 9 1 L 1 1 z M 10 2 L 10 9 L 11 9 L 11 8.71875 L 12.71875 7 L 13.71875 6 L 14 5.71875 L 14 8.28125 L 13.28125 9 L 15 9 L 15 2 L 14 2 L 14 4.28125 L 12.28125 6 L 11.28125 7 L 11 7.28125 L 11 4.71875 L 12.71875 3 L 13.71875 2 L 12.28125 2 L 11.28125 3 L 11 3.28125 L 11 2 L 10 2 z M 3 3 L 5 3 L 5 5 L 3 5 L 3 3 z M 3 7 L 5 7 L 5 9 L 3 9 L 3 7 z M 11 10 L 11 14 L 15 12 L 11 10 z M 3 11 L 5 11 L 5 13 L 3 13 L 3 11 z" transform="translate(3 3)"/>
</svg>
